X: 1
T: HUNTING THE HARE -- JIG
B: Ryan's Mammoth Collection of Fiddle Tunes
R: jig
M: 6/8
L: 1/8
Z: Contributed 20000913173642 by John Chambers John.Chambers:weema.com
K: D
  ({vABc}"_fz"d2.D) FGA | Bcd "4"edc | (kd2.D) FGA | Bdc d3 \
| ({vABc}"_fz"d2.D) FGA | Bcd "4"edc | (kd2.D) FGA | Bdc d3 H[|]|]
  vfed fed | fed fed | "4"ecd "4"ecd | "0"egf e3 \
|  fed fed | fed fed | "4"ecd "4"ecd | "0"egf e3 "_D.C"[|]|]
